core/schema/show/pipe/ocio/config_3d.ocio
ocio_profile_version: 1

search_path: /${OCIO_CONFIGS}/aces_1.0.3/luts:/${OCIO_CONFIGS}/nuke-default/luts:../../show/luts:../../seqs/$SEQ/luts:../../shots/$SHOT/luts:luts
strictparsing: true
luma: [0.2126, 0.7152, 0.0722]

description: The default NEXODUS config based on ACES 1.0.3

roles:
  color_picking: Output - Rec.709
  color_timing: ACES - ACEScc
  compositing_linear: ACES - ACEScg
  compositing_log: Camera Raw
  data: Utility - Raw
  default: ACES - ACES2065-1
  matte_paint: Utility - sRGB - Texture
  reference: Utility - Raw
  rendering: ACES - ACEScg
  scene_linear: ACES - ACEScg
  texture_paint: Utility - sRGB - Texture

displays:
  Monitor:
    - !<View> {name: AutoLUT CC, colorspace: Show LUT, looks: "-neutral, +dailies"}
    - !<View> {name: AutoLUT, colorspace: Show LUT}
    - !<View> {name: Rec2020, colorspace: Output - Rec.2020}
    - !<View> {name: Rec709, colorspace: Output - Rec.709}
    - !<View> {name: sRGB, colorspace: Output - sRGB}
    - !<View> {name: Camera Raw, colorspace: Camera Raw}
    - !<View> {name: None, colorspace: raw}

active_displays: [Monitor]
active_views: [Rec2020, Rec709, sRGB, AutoLUT CC, AutoLUT, Camera Raw, None]

looks:
  - !<Look>
    name: dailies
    process_space: Camera Raw
    transform: !<FileTransform> {src: dailies.cc, interpolation: linear, cccid: 0}

  - !<Look>
    name: neutral
    process_space: Camera Raw
    transform: !<FileTransform> {src: neutral.cc, interpolation: linear, cccid: 0}

  - !<Look>
    name: di
    process_space: Camera Raw
    transform: !<FileTransform> {src: di.cc, interpolation: linear, cccid: 0}

colorspaces:
  - !<ColorSpace>
    # This 'Camera Raw' ColorSpace will need to be set per-project, per-seq, or per-shot
    # dependending on its native capture format.
    name: Camera Raw
    family: NEXODUS
    equalitygroup: ""
    bitdepth: 32f
    description: |
      Camera Raw format
    isdata: false
    allocation: uniform
    allocationvars: [0, 1]
    # to_reference: !<ColorSpaceTransform> {src: '${CAMERA_RAW}', dst: ACES - ACES2065-1}
    # It may be required by some older OCIO-integrated apps that the CAMERA_RAW context
    # variable be hard-coded in this config.ocio because the 'ColorSpaceTransform'
    # did not always support context variable. If so, you can comment out the
    # above line and uncomment the below line.
    to_reference: !<ColorSpaceTransform> {src: logc3ei800_alexawide, dst: ACES - ACES2065-1}

  - !<ColorSpace>
    # This custom LUT convert the incoming image to the 'Camera Raw' format
    # and then applies the client provided LUT (usually a .cube file).
    name: Show LUT
    family: NEXODUS
    equalitygroup: ""
    bitdepth: 32f
    description: |
      The Show LUT provided by the client
    isdata: false
    allocation: lg2
    allocationvars: [0, 1]
    from_reference: !<GroupTransform>
      children:
        - !<ColorSpaceTransform> {src: ACES - ACES2065-1, dst: Camera Raw}
        - !<FileTransform> {src: $LUT, interpolation: linear, cccid: 0}

# The colorspaces defined from below are all from the standard nuke-default config
# and are provided for convenience and should not be modified.

  - !<ColorSpace>
    name: Legacy - linear
    family: Legacy
    equalitygroup: ""
    bitdepth: 32f
    description: |
      Scene-linear, high dynamic range. Used for rendering and compositing.
    isdata: false
    allocation: lg2
    allocationvars: [-15, 6]

  - !<ColorSpace>
    name: Legacy - sRGB
    family: Legacy
    equalitygroup: ""
    bitdepth: 32f
    description: |
      Standard RGB Display Space
    isdata: false
    allocation: uniform
    allocationvars: [-0.125, 1.125]
    to_reference: !<GroupTransform>
      children:
        - !<FileTransform> {src: srgb.spi1d, interpolation: linear}
        - !<MatrixTransform> {matrix: [0.695452, 0.140679, 0.163869, 0, 0.0447946, 0.859671, 0.0955343, 0, -0.00552588, 0.00402521, 1.0015, 0, 0, 0, 0, 1]}

  - !<ColorSpace>
    name: Legacy - sRGBf
    family: Legacy
    equalitygroup: ""
    bitdepth: 32f
    description: |
      Standard RGB Display Space, but with additional range to preserve float highlights.
    isdata: false
    allocation: uniform
    allocationvars: [-0.125, 4.875]
    to_reference: !<GroupTransform>
      children:
        - !<FileTransform> {src: srgbf.spi1d, interpolation: linear}
        - !<MatrixTransform> {matrix: [0.695452, 0.140679, 0.163869, 0, 0.0447946, 0.859671, 0.0955343, 0, -0.00552588, 0.00402521, 1.0015, 0, 0, 0, 0, 1]}

  - !<ColorSpace>
    name: Legacy - rec709
    family: Legacy
    equalitygroup: ""
    bitdepth: 32f
    description: |
      Rec. 709 (Full Range) Display Space
    isdata: false
    allocation: uniform
    allocationvars: [-0.125, 1.125]
    to_reference: !<GroupTransform>
      children:
        - !<FileTransform> {src: rec709.spi1d, interpolation: linear}
        - !<MatrixTransform> {matrix: [0.695452, 0.140679, 0.163869, 0, 0.0447946, 0.859671, 0.0955343, 0, -0.00552588, 0.00402521, 1.0015, 0, 0, 0, 0, 1]}

  - !<ColorSpace>
    name: Legacy - Cineon
    family: Legacy
    equalitygroup: ""
    bitdepth: 32f
    description: |
      Cineon (Log Film Scan)
    isdata: false
    allocation: uniform
    allocationvars: [-0.125, 1.125]
    to_reference: !<GroupTransform>
      children:
        - !<FileTransform> {src: cineon.spi1d, interpolation: linear}
        - !<MatrixTransform> {matrix: [0.695452, 0.140679, 0.163869, 0, 0.0447946, 0.859671, 0.0955343, 0, -0.00552588, 0.00402521, 1.0015, 0, 0, 0, 0, 1]}

  - !<ColorSpace>
    name: Legacy - Gamma1.8
    family: Legacy
    equalitygroup: ""
    bitdepth: 32f
    description: |
      Emulates a idealized Gamma 1.8 display device.
    isdata: false
    allocation: uniform
    allocationvars: [0, 1]
    to_reference: !<GroupTransform>
      children:
        - !<ExponentTransform> {value: [1.8, 1.8, 1.8, 1]}
        - !<MatrixTransform> {matrix: [0.695452, 0.140679, 0.163869, 0, 0.0447946, 0.859671, 0.0955343, 0, -0.00552588, 0.00402521, 1.0015, 0, 0, 0, 0, 1]}

  - !<ColorSpace>
    name: Legacy - Gamma2.2
    family: Legacy
    equalitygroup: ""
    bitdepth: 32f
    description: |
      Emulates a idealized Gamma 2.2 display device.
    isdata: false
    allocation: uniform
    allocationvars: [0, 1]
    to_reference: !<GroupTransform>
      children:
        - !<ExponentTransform> {value: [2.2, 2.2, 2.2, 1]}
        - !<MatrixTransform> {matrix: [0.695452, 0.140679, 0.163869, 0, 0.0447946, 0.859671, 0.0955343, 0, -0.00552588, 0.00402521, 1.0015, 0, 0, 0, 0, 1]}

  - !<ColorSpace>
    name: Legacy - Panalog
    family: Legacy
    equalitygroup: ""
    bitdepth: 32f
    description: |
      Sony/Panavision Genesis Log Space
    isdata: false
    allocation: uniform
    allocationvars: [-0.125, 1.125]
    to_reference: !<GroupTransform>
      children:
        - !<FileTransform> {src: panalog.spi1d, interpolation: linear}
        - !<MatrixTransform> {matrix: [0.695452, 0.140679, 0.163869, 0, 0.0447946, 0.859671, 0.0955343, 0, -0.00552588, 0.00402521, 1.0015, 0, 0, 0, 0, 1]}

  - !<ColorSpace>
    name: Legacy - REDLog
    family: Legacy
    equalitygroup: ""
    bitdepth: 32f
    description: |
      RED Log Space
    isdata: false
    allocation: uniform
    allocationvars: [-0.125, 1.125]
    to_reference: !<GroupTransform>
      children:
        - !<FileTransform> {src: redlog.spi1d, interpolation: linear}
        - !<MatrixTransform> {matrix: [0.695452, 0.140679, 0.163869, 0, 0.0447946, 0.859671, 0.0955343, 0, -0.00552588, 0.00402521, 1.0015, 0, 0, 0, 0, 1]}

  - !<ColorSpace>
    name: Legacy - ViperLog
    family: Legacy
    equalitygroup: ""
    bitdepth: 32f
    description: |
      Viper Log Space
    isdata: false
    allocation: uniform
    allocationvars: [-0.125, 1.125]
    to_reference: !<GroupTransform>
      children:
        - !<FileTransform> {src: viperlog.spi1d, interpolation: linear}
        - !<MatrixTransform> {matrix: [0.695452, 0.140679, 0.163869, 0, 0.0447946, 0.859671, 0.0955343, 0, -0.00552588, 0.00402521, 1.0015, 0, 0, 0, 0, 1]}

  - !<ColorSpace>
    name: Legacy - AlexaV3LogC
    family: Legacy
    equalitygroup: ""
    bitdepth: 32f
    description: |
      Alexa Log C
    isdata: false
    allocation: uniform
    allocationvars: [-0.125, 1.125]
    to_reference: !<GroupTransform>
      children:
        - !<FileTransform> {src: alexalogc.spi1d, interpolation: linear}
        - !<MatrixTransform> {matrix: [0.695452, 0.140679, 0.163869, 0, 0.0447946, 0.859671, 0.0955343, 0, -0.00552588, 0.00402521, 1.0015, 0, 0, 0, 0, 1]}

  - !<ColorSpace>
    name: Legacy - PLogLin
    family: Legacy
    equalitygroup: ""
    bitdepth: 32f
    description: |
      Josh Pines style pivoted log/lin conversion. 445->0.18
    isdata: false
    allocation: uniform
    allocationvars: [-0.125, 1.125]
    to_reference: !<GroupTransform>
      children:
        - !<FileTransform> {src: ploglin.spi1d, interpolation: linear}
        - !<MatrixTransform> {matrix: [0.695452, 0.140679, 0.163869, 0, 0.0447946, 0.859671, 0.0955343, 0, -0.00552588, 0.00402521, 1.0015, 0, 0, 0, 0, 1]}

  - !<ColorSpace>
    name: Legacy - SLog
    family: Legacy
    equalitygroup: ""
    bitdepth: 32f
    description: |
      Sony SLog
    isdata: false
    allocation: uniform
    allocationvars: [-0.125, 1.125]
    to_reference: !<GroupTransform>
      children:
        - !<FileTransform> {src: slog.spi1d, interpolation: linear}
        - !<MatrixTransform> {matrix: [0.695452, 0.140679, 0.163869, 0, 0.0447946, 0.859671, 0.0955343, 0, -0.00552588, 0.00402521, 1.0015, 0, 0, 0, 0, 1]}

  - !<ColorSpace>
    name: Legacy - raw
    family: Legacy
    equalitygroup: ""
    bitdepth: 32f
    description: |
      Raw Data. Used for normals, points, etc.
    isdata: true
    allocation: uniform

# The colorspaces defined from here down are all from the standard ACES 1.0.3
# config and should not be modified.

  - !<ColorSpace>
    name: ACES - ACES2065-1
    family: ACES
    equalitygroup: ""
    bitdepth: 32f
    description: |
      The Academy Color Encoding System reference color space
    isdata: false
    allocation: lg2
    allocationvars: [-8, 5, 0.00390625]

  - !<ColorSpace>
    name: ACES - ACEScc
    family: ACES
    equalitygroup: ""
    bitdepth: 32f
    description: |
      The ACEScc color space

      ACES Transform ID : ACEScsc.ACEScc_to_ACES
    isdata: false
    allocation: uniform
    allocationvars: [-0.3584, 1.468]
    to_reference: !<GroupTransform>
      children:
        - !<FileTransform> {src: ACEScc_to_linear.spi1d, interpolation: linear}
        - !<MatrixTransform> {matrix: [0.695452, 0.140679, 0.163869, 0, 0.0447946, 0.859671, 0.0955343, 0, -0.00552588, 0.00402521, 1.0015, 0, 0, 0, 0, 1]}

  - !<ColorSpace>
    name: ACES - ACEScct
    family: ACES
    equalitygroup: ""
    bitdepth: 32f
    description: |
      The ACEScct color space

      ACES Transform ID : ACEScsc.ACEScct_to_ACES
    isdata: false
    allocation: uniform
    allocationvars: [-0.249136, 1.468]
    to_reference: !<GroupTransform>
      children:
        - !<FileTransform> {src: ACEScct_to_linear.spi1d, interpolation: linear}
        - !<MatrixTransform> {matrix: [0.695452, 0.140679, 0.163869, 0, 0.0447946, 0.859671, 0.0955343, 0, -0.00552588, 0.00402521, 1.0015, 0, 0, 0, 0, 1]}

  - !<ColorSpace>
    name: ACES - ACESproxy
    family: ACES
    equalitygroup: ""
    bitdepth: 32f
    description: |
      The ACESproxy color space

      ACES Transform ID : ACEScsc.ACESproxy10i_to_ACES
    isdata: false
    allocation: uniform
    allocationvars: [0, 1]
    to_reference: !<GroupTransform>
      children:
        - !<FileTransform> {src: ACESproxy_to_linear.spi1d, interpolation: linear}
        - !<MatrixTransform> {matrix: [0.695452, 0.140679, 0.163869, 0, 0.0447946, 0.859671, 0.0955343, 0, -0.00552588, 0.00402521, 1.0015, 0, 0, 0, 0, 1]}

  - !<ColorSpace>
    name: ACES - ACEScg
    family: ACES
    equalitygroup: ""
    bitdepth: 32f
    description: |
      The ACEScg color space

      ACES Transform ID : ACEScsc.ACEScg_to_ACES
    isdata: false
    allocation: lg2
    allocationvars: [-8, 5, 0.00390625]
    to_reference: !<MatrixTransform> {matrix: [0.695452, 0.140679, 0.163869, 0, 0.0447946, 0.859671, 0.0955343, 0, -0.00552588, 0.00402521, 1.0015, 0, 0, 0, 0, 1]}

  - !<ColorSpace>
    name: Input - ADX - ADX10
    family: Input/ADX
    equalitygroup: ""
    bitdepth: 10ui
    description: |
      ADX10 color space - used for film scans

      ACES Transform ID : ACEScsc.ADX10_to_ACES
    isdata: false
    allocation: uniform
    allocationvars: [0, 1]
    to_reference: !<GroupTransform>
      children:
        - !<MatrixTransform> {matrix: [2.046, 0, 0, 0, 0, 2.046, 0, 0, 0, 0, 2.046, 0, 0, 0, 0, 1], offset: [-0.19, -0.19, -0.19, 0]}
        - !<MatrixTransform> {matrix: [0.75573, 0.22197, 0.0223, 0, 0.05901, 0.96928, -0.02829, 0, 0.16134, 0.07406, 0.7646, 0, 0, 0, 0, 1]}
        - !<FileTransform> {src: ADX_CID_to_RLE.spi1d, interpolation: linear}
        - !<LogTransform> {base: 10, direction: inverse}
        - !<MatrixTransform> {matrix: [0.72286, 0.1263, 0.15084, 0, 0.11923, 0.76418, 0.11659, 0, 0.01427, 0.08213, 0.90359, 0, 0, 0, 0, 1]}

  - !<ColorSpace>
    name: Input - ADX - ADX16
    family: Input/ADX
    equalitygroup: ""
    bitdepth: 16ui
    description: |
      ADX16 color space - used for film scans

      ACES Transform ID : ACEScsc.ADX16_to_ACES
    isdata: false
    allocation: uniform
    allocationvars: [0, 1]
    to_reference: !<GroupTransform>
      children:
        - !<MatrixTransform> {matrix: [8.19188, 0, 0, 0, 0, 8.19188, 0, 0, 0, 0, 8.19188, 0, 0, 0, 0, 1], offset: [-0.19, -0.19, -0.19, 0]}
        - !<MatrixTransform> {matrix: [0.75573, 0.22197, 0.0223, 0, 0.05901, 0.96928, -0.02829, 0, 0.16134, 0.07406, 0.7646, 0, 0, 0, 0, 1]}
        - !<FileTransform> {src: ADX_CID_to_RLE.spi1d, interpolation: linear}
        - !<LogTransform> {base: 10, direction: inverse}
        - !<MatrixTransform> {matrix: [0.72286, 0.1263, 0.15084, 0, 0.11923, 0.76418, 0.11659, 0, 0.01427, 0.08213, 0.90359, 0, 0, 0, 0, 1]}

  - !<ColorSpace>
    name: Input - ARRI - V3 LogC (EI160) - Wide Gamut
    family: Input/ARRI
    equalitygroup: ""
    bitdepth: 32f
    description: |
      V3 LogC (EI160) - Wide Gamut

      ACES Transform ID : IDT.ARRI.Alexa-v3-logC-EI160.a1.v1
    isdata: false
    allocation: uniform
    allocationvars: [0, 1]
    to_reference: !<GroupTransform>
      children:
        - !<FileTransform> {src: V3_LogC_160_to_linear.spi1d, interpolation: linear}
        - !<MatrixTransform> {matrix: [0.680206, 0.236137, 0.083658, 0, 0.085415, 1.01747, -0.102886, 0, 0.002057, -0.062563, 1.06051, 0, 0, 0, 0, 1]}

  - !<ColorSpace>
    name: Input - ARRI - V3 LogC (EI200) - Wide Gamut
    family: Input/ARRI
    equalitygroup: ""
    bitdepth: 32f
    description: |
      V3 LogC (EI200) - Wide Gamut

      ACES Transform ID : IDT.ARRI.Alexa-v3-logC-EI200.a1.v1
    isdata: false
    allocation: uniform
    allocationvars: [0, 1]
    to_reference: !<GroupTransform>
      children:
        - !<FileTransform> {src: V3_LogC_200_to_linear.spi1d, interpolation: linear}
        - !<MatrixTransform> {matrix: [0.680206, 0.236137, 0.083658, 0, 0.085415, 1.01747, -0.102886, 0, 0.002057, -0.062563, 1.06051, 0, 0, 0, 0, 1]}

  - !<ColorSpace>
    name: Input - ARRI - V3 LogC (EI250) - Wide Gamut
    family: Input/ARRI
    equalitygroup: ""
    bitdepth: 32f
    description: |
      V3 LogC (EI250) - Wide Gamut

      ACES Transform ID : IDT.ARRI.Alexa-v3-logC-EI250.a1.v1
    isdata: false
    allocation: uniform
    allocationvars: [0, 1]
    to_reference: !<GroupTransform>
      children:
        - !<FileTransform> {src: V3_LogC_250_to_linear.spi1d, interpolation: linear}
        - !<MatrixTransform> {matrix: [0.680206, 0.236137, 0.083658, 0, 0.085415, 1.01747, -0.102886, 0, 0.002057, -0.062563, 1.06051, 0, 0, 0, 0, 1]}

  - !<ColorSpace>
    name: Input - ARRI - V3 LogC (EI320) - Wide Gamut
    family: Input/ARRI
    equalitygroup: ""
    bitdepth: 32f
    description: |
      V3 LogC (EI320) - Wide Gamut

      ACES Transform ID : IDT.ARRI.Alexa-v3-logC-EI320.a1.v1
    isdata: false
    allocation: uniform
    allocationvars: [0, 1]
    to_reference: !<GroupTransform>
      children:
        - !<FileTransform> {src: V3_LogC_320_to_linear.spi1d, interpolation: linear}
        - !<MatrixTransform> {matrix: [0.680206, 0.236137, 0.083658, 0, 0.085415, 1.01747, -0.102886, 0, 0.002057, -0.062563, 1.06051, 0, 0, 0, 0, 1]}

  - !<ColorSpace>
    name: Input - ARRI - V3 LogC (EI400) - Wide Gamut
    family: Input/ARRI
    equalitygroup: ""
    bitdepth: 32f
    description: |
      V3 LogC (EI400) - Wide Gamut

      ACES Transform ID : IDT.ARRI.Alexa-v3-logC-EI400.a1.v1
    isdata: false
    allocation: uniform
    allocationvars: [0, 1]
    to_reference: !<GroupTransform>
      children:
        - !<FileTransform> {src: V3_LogC_400_to_linear.spi1d, interpolation: linear}
        - !<MatrixTransform> {matrix: [0.680206, 0.236137, 0.083658, 0, 0.085415, 1.01747, -0.102886, 0, 0.002057, -0.062563, 1.06051, 0, 0, 0, 0, 1]}

  - !<ColorSpace>
    name: Input - ARRI - V3 LogC (EI500) - Wide Gamut
    family: Input/ARRI
    equalitygroup: ""
    bitdepth: 32f
    description: |
      V3 LogC (EI500) - Wide Gamut

      ACES Transform ID : IDT.ARRI.Alexa-v3-logC-EI500.a1.v1
    isdata: false
    allocation: uniform
    allocationvars: [0, 1]
    to_reference: !<GroupTransform>
      children:
        - !<FileTransform> {src: V3_LogC_500_to_linear.spi1d, interpolation: linear}
        - !<MatrixTransform> {matrix: [0.680206, 0.236137, 0.083658, 0, 0.085415, 1.01747, -0.102886, 0, 0.002057, -0.062563, 1.06051, 0, 0, 0, 0, 1]}

  - !<ColorSpace>
    name: Input - ARRI - V3 LogC (EI640) - Wide Gamut
    family: Input/ARRI
    equalitygroup: ""
    bitdepth: 32f
    description: |
      V3 LogC (EI640) - Wide Gamut

      ACES Transform ID : IDT.ARRI.Alexa-v3-logC-EI640.a1.v1
    isdata: false
    allocation: uniform
    allocationvars: [0, 1]
    to_reference: !<GroupTransform>
      children:
        - !<FileTransform> {src: V3_LogC_640_to_linear.spi1d, interpolation: linear}
        - !<MatrixTransform> {matrix: [0.680206, 0.236137, 0.083658, 0, 0.085415, 1.01747, -0.102886, 0, 0.002057, -0.062563, 1.06051, 0, 0, 0, 0, 1]}

  - !<ColorSpace>
    name: Input - ARRI - V3 LogC (EI800) - Wide Gamut
    family: Input/ARRI
    equalitygroup: ""
    bitdepth: 32f
    description: |
      V3 LogC (EI800) - Wide Gamut

      ACES Transform ID : IDT.ARRI.Alexa-v3-logC-EI800.a1.v1
    isdata: false
    allocation: uniform
    allocationvars: [0, 1]
    to_reference: !<GroupTransform>
      children:
        - !<FileTransform> {src: V3_LogC_800_to_linear.spi1d, interpolation: linear}
        - !<MatrixTransform> {matrix: [0.680206, 0.236137, 0.083658, 0, 0.085415, 1.01747, -0.102886, 0, 0.002057, -0.062563, 1.06051, 0, 0, 0, 0, 1]}

  - !<ColorSpace>
    name: Input - ARRI - V3 LogC (EI1000) - Wide Gamut
    family: Input/ARRI
    equalitygroup: ""
    bitdepth: 32f
    description: |
      V3 LogC (EI1000) - Wide Gamut

      ACES Transform ID : IDT.ARRI.Alexa-v3-logC-EI1000.a1.v1
    isdata: false
    allocation: uniform
    allocationvars: [0, 1]
    to_reference: !<GroupTransform>
      children:
        - !<FileTransform> {src: V3_LogC_1000_to_linear.spi1d, interpolation: linear}
        - !<MatrixTransform> {matrix: [0.680206, 0.236137, 0.083658, 0, 0.085415, 1.01747, -0.102886, 0, 0.002057, -0.062563, 1.06051, 0, 0, 0, 0, 1]}

  - !<ColorSpace>
    name: Input - ARRI - V3 LogC (EI1280) - Wide Gamut
    family: Input/ARRI
    equalitygroup: ""
    bitdepth: 32f
    description: |
      V3 LogC (EI1280) - Wide Gamut

      ACES Transform ID : IDT.ARRI.Alexa-v3-logC-EI1280.a1.v1
    isdata: false
    allocation: uniform
    allocationvars: [0, 1]
    to_reference: !<GroupTransform>
      children:
        - !<FileTransform> {src: V3_LogC_1280_to_linear.spi1d, interpolation: linear}
        - !<MatrixTransform> {matrix: [0.680206, 0.236137, 0.083658, 0, 0.085415, 1.01747, -0.102886, 0, 0.002057, -0.062563, 1.06051, 0, 0, 0, 0, 1]}

  - !<ColorSpace>
    name: Input - ARRI - V3 LogC (EI1600) - Wide Gamut
    family: Input/ARRI
    equalitygroup: ""
    bitdepth: 32f
    description: |
      V3 LogC (EI1600) - Wide Gamut

      ACES Transform ID : IDT.ARRI.Alexa-v3-logC-EI1600.a1.v1
    isdata: false
    allocation: uniform
    allocationvars: [0, 1]
    to_reference: !<GroupTransform>
      children:
        - !<FileTransform> {src: V3_LogC_1600_to_linear.spi1d, interpolation: linear}
        - !<MatrixTransform> {matrix: [0.680206, 0.236137, 0.083658, 0, 0.085415, 1.01747, -0.102886, 0, 0.002057, -0.062563, 1.06051, 0, 0, 0, 0, 1]}

  - !<ColorSpace>
    name: Input - ARRI - V3 LogC (EI2000) - Wide Gamut
    family: Input/ARRI
    equalitygroup: ""
    bitdepth: 32f
    description: |
      V3 LogC (EI2000) - Wide Gamut

      ACES Transform ID : IDT.ARRI.Alexa-v3-logC-EI2000.a1.v1
    isdata: false
    allocation: uniform
    allocationvars: [0, 1]
    to_reference: !<GroupTransform>
      children:
        - !<FileTransform> {src: V3_LogC_2000_to_linear.spi1d, interpolation: linear}
        - !<MatrixTransform> {matrix: [0.680206, 0.236137, 0.083658, 0, 0.085415, 1.01747, -0.102886, 0, 0.002057, -0.062563, 1.06051, 0, 0, 0, 0, 1]}

  - !<ColorSpace>
    name: Input - ARRI - V3 LogC (EI2560) - Wide Gamut
    family: Input/ARRI
    equalitygroup: ""
    bitdepth: 32f
    description: |
      V3 LogC (EI2560) - Wide Gamut

      ACES Transform ID : IDT.ARRI.Alexa-v3-logC-EI2560.a1.v1
    isdata: false
    allocation: uniform
    allocationvars: [0, 1]
    to_reference: !<GroupTransform>
      children:
        - !<FileTransform> {src: V3_LogC_2560_to_linear.spi1d, interpolation: linear}
        - !<MatrixTransform> {matrix: [0.680206, 0.236137, 0.083658, 0, 0.085415, 1.01747, -0.102886, 0, 0.002057, -0.062563, 1.06051, 0, 0, 0, 0, 1]}

  - !<ColorSpace>
    name: Input - ARRI - V3 LogC (EI3200) - Wide Gamut
    family: Input/ARRI
    equalitygroup: ""
    bitdepth: 32f
    description: |
      V3 LogC (EI3200) - Wide Gamut

      ACES Transform ID : IDT.ARRI.Alexa-v3-logC-EI3200.a1.v1
    isdata: false
    allocation: uniform
    allocationvars: [0, 1]
    to_reference: !<GroupTransform>
      children:
        - !<FileTransform> {src: V3_LogC_3200_to_linear.spi1d, interpolation: linear}
        - !<MatrixTransform> {matrix: [0.680206, 0.236137, 0.083658, 0, 0.085415, 1.01747, -0.102886, 0, 0.002057, -0.062563, 1.06051, 0, 0, 0, 0, 1]}

  - !<ColorSpace>
    name: Input - ARRI - Curve - V3 LogC (EI800)
    family: Input/ARRI
    equalitygroup: ""
    bitdepth: 32f
    description: |
      Curve - V3 LogC (EI800)
    isdata: false
    allocation: uniform
    allocationvars: [0, 1]
    to_reference: !<FileTransform> {src: V3_LogC_800_to_linear.spi1d, interpolation: linear}

  - !<ColorSpace>
    name: Input - ARRI - Linear - ALEXA Wide Gamut
    family: Input/ARRI
    equalitygroup: ""
    bitdepth: 32f
    description: |
      Linear - ALEXA Wide Gamut
    isdata: false
    allocation: lg2
    allocationvars: [-8, 5, 0.00390625]
