core/schema/project/pipeline/color/luts/default.cube
TITLE "ACEScg to Output > Rec.709"
LUT_3D_SIZE 5
DOMAIN_MIN 0.000000 0.000000 0.000000
DOMAIN_MAX 0.903226 0.903226 0.903226
0.000000 0.000000 0.000000
0.491811 0.000000 0.000000
0.712075 0.000000 0.000000
0.848562 0.000000 0.000000
0.934784 0.000000 0.000000
0.000000 0.464663 0.000000
0.458840 0.447744 0.000000
0.712454 0.425899 0.000000
0.838859 0.411523 0.000000
0.913958 0.402944 0.000000
0.000000 0.663010 0.000000
0.297792 0.652445 0.000000
0.654471 0.638116 0.000000
0.808052 0.627292 0.000000
0.886457 0.621488 0.000000
0.000000 0.775591 0.000000
0.019848 0.766543 0.000000
0.593172 0.754833 0.000000
0.765380 0.745618 0.000000
0.853802 0.740054 0.000000
0.000000 0.838765 0.000000
0.000000 0.830186 0.000000
0.549623 0.819515 0.000000
0.734284 0.811132 0.000000
0.827239 0.805670 0.000000
0.000000 0.000000 0.461476
0.530399 0.000000 0.457407
0.754880 0.000000 0.456744
0.870332 0.000000 0.457120
0.943100 0.000000 0.458037
0.000000 0.463942 0.446280
0.447421 0.447421 0.447420
0.685890 0.429202 0.447811
0.821332 0.414481 0.448549
0.903242 0.405247 0.449671
0.000000 0.662490 0.432415
0.264698 0.651893 0.434200
0.646770 0.637708 0.435804
0.797889 0.627640 0.437453
0.873546 0.622793 0.438925
0.000000 0.775011 0.423718
0.052347 0.766074 0.425761
0.583061 0.754536 0.427562
0.758281 0.745543 0.429611
0.846864 0.739973 0.431954
0.000000 0.838126 0.420842
0.000000 0.829641 0.422981
0.539381 0.819065 0.424952
0.727863 0.810731 0.427165
0.820526 0.805480 0.429634
0.000000 0.000000 0.660741
0.514806 0.000000 0.656133
0.758112 0.000000 0.653847
0.891876 0.000000 0.653368
0.962066 0.000000 0.653629
0.000000 0.462532 0.647295
0.427226 0.445913 0.646895
0.708211 0.421797 0.646437
0.845196 0.404061 0.646464
0.914263 0.397071 0.646667
0.000000 0.661626 0.636478
0.237215 0.651163 0.636861
0.637086 0.637085 0.637085
0.778048 0.628640 0.637331
0.858935 0.623378 0.637816
0.000000 0.774508 0.629853
0.053350 0.765656 0.630465
0.571999 0.754018 0.630969
0.750802 0.744588 0.631746
0.836332 0.739375 0.632622
0.000000 0.837603 0.627146
0.000000 0.829152 0.627876
0.523536 0.818607 0.628459
0.717404 0.810358 0.629305
0.813261 0.804810 0.630444
0.000000 0.000000 0.775292
0.501712 0.000000 0.770542
0.750440 0.000000 0.767474
0.888336 0.000000 0.766194
0.965126 0.000000 0.765931
0.000000 0.461869 0.761941
0.410986 0.444970 0.760799
0.700684 0.420603 0.759565
0.847182 0.400881 0.759000
0.926376 0.388368 0.758944
0.000000 0.661045 0.751168
0.179065 0.650510 0.750822
0.627184 0.636335 0.750339
0.791551 0.625166 0.750207
0.871987 0.619188 0.750314
0.000000 0.774009 0.744353
0.000000 0.764899 0.744282
0.561410 0.753173 0.744042
0.744076 0.744076 0.744076
0.824423 0.739518 0.744279
0.000000 0.837282 0.740909
0.000000 0.828767 0.740909
0.513471 0.818104 0.740837
0.710242 0.809615 0.740978
0.807653 0.804142 0.741381
0.000000 0.000000 0.840441
0.493056 0.000000 0.835610
0.745585 0.000000 0.832127
0.884175 0.000000 0.830427
0.961935 0.000000 0.829722
0.000000 0.461165 0.827010
0.402240 0.444893 0.825412
0.695062 0.420323 0.823757
0.843433 0.400015 0.822805
0.923994 0.387145 0.822404
0.000000 0.660654 0.815994
0.146771 0.650252 0.815263
0.621084 0.635980 0.814333
0.786907 0.624912 0.813785
0.873703 0.617870 0.813639
0.000000 0.773412 0.808851
0.042361 0.764445 0.808370
0.552969 0.752812 0.807767
0.738874 0.743680 0.807430
0.831702 0.737824 0.807392
0.000000 0.836824 0.804882
0.000000 0.828286 0.804516
0.507439 0.817579 0.804025
0.706045 0.809161 0.803809
0.803811 0.803811 0.803811
