core/schema/project/pipeline/color/luts/default.cube
TITLE "ACEScg to Output > Rec.709"
LUT_3D_SIZE 8
DOMAIN_MIN 0.000000 0.000000 0.000000
DOMAIN_MAX 0.903226 0.903226 0.903226
0.000000 0.000000 0.000000
0.355159 0.000000 0.000000
0.531236 0.000000 0.000000
0.660779 0.000000 0.000000
0.757054 0.000000 0.000000
0.832282 0.000000 0.000000
0.890530 0.000000 0.000000
0.934784 0.000000 0.000000
0.000000 0.330115 0.000000
0.323855 0.316011 0.000000
0.543414 0.294166 0.000000
0.668713 0.274761 0.000000
0.758642 0.255948 0.000000
0.829111 0.237932 0.000000
0.883454 0.221135 0.000000
0.924796 0.207159 0.000000
0.000000 0.501556 0.000000
0.144483 0.495278 0.000000
0.495229 0.483199 0.000000
0.652066 0.471241 0.000000
0.752550 0.461574 0.000000
0.822744 0.454267 0.000000
0.872582 0.449225 0.000000
0.910329 0.445608 0.000000
0.000000 0.617886 0.000000
0.000000 0.613019 0.000000
0.425510 0.604042 0.000000
0.609972 0.594857 0.000000
0.726902 0.586740 0.000000
0.804559 0.580387 0.000000
0.857610 0.576073 0.000000
0.895366 0.573298 0.000000
0.000000 0.701945 0.000000
0.000000 0.697661 0.000000
0.342695 0.690129 0.000000
0.565466 0.682528 0.000000
0.692717 0.675548 0.000000
0.778496 0.669910 0.000000
0.836463 0.665828 0.000000
0.876773 0.663004 0.000000
0.000000 0.763669 0.000000
0.000000 0.759552 0.000000
0.228411 0.752544 0.000000
0.523684 0.745550 0.000000
0.662248 0.739202 0.000000
0.753219 0.733858 0.000000
0.815029 0.729808 0.000000
0.857950 0.726934 0.000000
0.000000 0.807014 0.000000
0.000000 0.802999 0.000000
0.110241 0.796539 0.000000
0.489248 0.790049 0.000000
0.637688 0.784139 0.000000
0.732594 0.779187 0.000000
0.796333 0.775412 0.000000
0.841530 0.772571 0.000000
0.000000 0.838765 0.000000
0.000000 0.834826 0.000000
0.068289 0.828587 0.000000
0.462286 0.822425 0.000000
0.618071 0.816762 0.000000
0.715380 0.812096 0.000000
0.780808 0.808463 0.000000
0.827239 0.805670 0.000000
0.000000 0.000000 0.326435
0.374045 0.000000 0.322529
0.569428 0.000000 0.321203
0.684646 0.000000 0.321146
0.770911 0.000000 0.321426
0.840737 0.000000 0.321960
0.895512 0.000000 0.322715
0.937560 0.000000 0.323677
0.000000 0.327304 0.314783
0.315425 0.315425 0.315424
0.522601 0.297221 0.315545
0.653759 0.278222 0.315782
0.749536 0.259491 0.316249
0.823944 0.239792 0.316813
0.879934 0.223524 0.317597
0.922287 0.211204 0.318522
0.000000 0.501351 0.300287
0.107945 0.495019 0.301797
0.490630 0.483188 0.302873
0.644321 0.472140 0.303842
0.739290 0.463821 0.304579
0.809162 0.457144 0.305248
0.861759 0.451915 0.306056
0.901947 0.448054 0.307026
0.000000 0.617703 0.286457
0.000000 0.612823 0.288273
0.418593 0.603879 0.289573
0.606603 0.594757 0.290903
0.722435 0.586882 0.292344
0.798440 0.581036 0.293650
0.850248 0.577177 0.294926
0.887694 0.574722 0.296183
0.000000 0.701789 0.274098
0.000000 0.697551 0.276149
0.336286 0.690082 0.277685
0.561433 0.682507 0.279215
0.689603 0.675550 0.280849
0.775816 0.669903 0.282677
0.833184 0.665813 0.284536
0.872537 0.663149 0.286297
0.000000 0.763181 0.264278
0.000000 0.759059 0.266468
0.229802 0.752171 0.268370
0.520209 0.745284 0.270268
0.658965 0.738908 0.272243
0.750570 0.733663 0.274394
0.812071 0.729753 0.276610
0.855095 0.726949 0.278683
0.000000 0.806660 0.258349
0.000000 0.802728 0.260695
0.086125 0.796257 0.262700
0.485079 0.789864 0.264714
0.633467 0.783982 0.266877
0.728628 0.779144 0.269017
0.792863 0.775417 0.271307
0.838217 0.772639 0.273689
0.000000 0.838466 0.255434
0.000000 0.834538 0.257887
0.056379 0.828315 0.260011
0.454578 0.822177 0.262129
0.612939 0.816596 0.264340
0.711831 0.811965 0.266573
0.777592 0.808371 0.268986
0.824008 0.805629 0.271542
0.000000 0.000000 0.498459
0.358846 0.000000 0.495783
0.572698 0.000000 0.493897
0.709139 0.000000 0.493318
0.799962 0.000000 0.493248
0.863259 0.000000 0.493406
0.909649 0.000000 0.493738
0.945871 0.000000 0.494197
0.000000 0.325333 0.490590
0.296487 0.314009 0.490665
0.542088 0.290540 0.490324
0.680354 0.266311 0.490233
0.766443 0.248319 0.490225
0.832301 0.232184 0.490349
0.883658 0.216983 0.490664
0.923581 0.202274 0.491139
0.000000 0.500700 0.481662
0.027630 0.494535 0.482380
0.482732 0.482732 0.482731
0.625586 0.473403 0.482898
0.724745 0.464801 0.483157
0.799430 0.457515 0.483523
0.854943 0.451881 0.484016
0.896659 0.447785 0.484612
0.000000 0.617180 0.474141
0.000000 0.612263 0.475051
0.408856 0.603444 0.475669
0.599886 0.594330 0.476326
0.712816 0.586970 0.476933
0.785972 0.581840 0.477489
0.837852 0.578261 0.478054
0.876995 0.575707 0.478680
0.000000 0.701474 0.468050
0.000000 0.697234 0.469061
0.312681 0.689648 0.469783
0.553212 0.681977 0.470570
0.684416 0.674932 0.471455
0.770444 0.669392 0.472384
0.825985 0.665707 0.473261
0.864557 0.663354 0.474073
0.000000 0.762597 0.463743
0.000000 0.758543 0.464799
0.147441 0.751668 0.465663
0.511021 0.744815 0.466523
0.652474 0.738545 0.467475
0.745010 0.733372 0.468483
0.806750 0.729525 0.469559
0.849329 0.726877 0.470624
0.000000 0.806260 0.461264
0.000000 0.802338 0.462371
0.128566 0.795911 0.463257
0.473967 0.789519 0.464161
0.626486 0.783709 0.465112
0.723364 0.778902 0.466154
0.788066 0.775209 0.467312
0.833294 0.772506 0.468528
0.000000 0.838110 0.460232
0.000000 0.834169 0.461373
0.000000 0.827997 0.462293
0.441329 0.821830 0.463243
0.607097 0.816292 0.464223
0.706968 0.811692 0.465329
0.772991 0.808127 0.466520
0.819371 0.805434 0.467766
0.000000 0.000000 0.615315
0.342995 0.000000 0.612714
0.564463 0.000000 0.610296
0.706242 0.000000 0.609102
0.806297 0.000000 0.608630
0.876540 0.000000 0.608543
0.924112 0.000000 0.608679
0.957839 0.000000 0.608937
0.000000 0.324489 0.607895
0.276449 0.312568 0.607471
0.534191 0.288801 0.606553
0.683206 0.262137 0.606028
0.785846 0.234688 0.605824
0.853833 0.212686 0.605828
0.899997 0.196555 0.605915
0.934061 0.184574 0.606073
0.000000 0.500101 0.599729
0.059801 0.493793 0.599940
0.471944 0.481834 0.599792
0.640405 0.469510 0.599759
0.744911 0.459354 0.599799
0.811549 0.453172 0.599844
0.860884 0.448541 0.599979
0.899311 0.445013 0.600232
0.000000 0.616646 0.593213
0.000000 0.611830 0.593650
0.395919 0.602925 0.593781
0.593974 0.593973 0.593973
0.698464 0.587581 0.594101
0.774580 0.582329 0.594292
0.829781 0.578373 0.594578
0.871324 0.575521 0.594948
0.000000 0.701050 0.588041
0.000000 0.696636 0.588579
0.291901 0.689095 0.588888
0.545110 0.681376 0.589213
0.678742 0.674494 0.589627
0.762899 0.669370 0.590052
0.815179 0.666291 0.590414
0.853802 0.664100 0.590824
0.000000 0.762124 0.584406
0.000000 0.758113 0.584974
0.191633 0.751288 0.585336
0.501165 0.744416 0.585744
0.646688 0.738211 0.586191
0.740055 0.733092 0.586771
0.801296 0.729395 0.587387
0.842559 0.727032 0.587959
0.000000 0.805966 0.582122
0.000000 0.802025 0.582748
0.035874 0.795648 0.583171
0.462907 0.789227 0.583604
0.620492 0.783486 0.584121
0.718287 0.778722 0.584730
0.783441 0.774998 0.585438
0.828542 0.772118 0.586201
0.000000 0.837663 0.581068
0.000000 0.833790 0.581689
0.054768 0.827655 0.582148
0.431238 0.821563 0.582617
0.601699 0.816064 0.583164
0.702381 0.811460 0.583794
0.768803 0.807909 0.584523
0.815043 0.805073 0.585345
0.000000 0.000000 0.700107
0.328013 0.000000 0.697587
0.557227 0.000000 0.694913
0.700655 0.000000 0.693402
0.802961 0.000000 0.692559
0.876756 0.000000 0.692221
0.928286 0.000000 0.692179
0.964188 0.000000 0.692314
0.000000 0.323153 0.692962
0.258322 0.311885 0.692200
0.526037 0.287875 0.690952
0.677805 0.260298 0.690118
0.783367 0.231319 0.689627
0.858690 0.203419 0.689433
0.909831 0.177535 0.689442
0.944888 0.154564 0.689552
0.000000 0.499364 0.684974
0.012186 0.493181 0.684899
0.462753 0.481225 0.684407
0.634735 0.469003 0.684054
0.747408 0.457425 0.683915
0.825482 0.448048 0.683918
0.876097 0.442228 0.684002
0.910937 0.439239 0.684115
0.000000 0.616236 0.678736
0.000000 0.611405 0.678870
0.380418 0.602517 0.678716
0.586621 0.593438 0.678617
0.709362 0.585014 0.678636
0.788326 0.578950 0.678715
0.837314 0.575715 0.678797
0.874622 0.573538 0.678947
0.000000 0.700455 0.673849
0.000000 0.696187 0.674092
0.287081 0.688630 0.674078
0.537762 0.681028 0.674129
0.674233 0.674233 0.674232
0.751147 0.669885 0.674341
0.806495 0.666648 0.674513
0.847663 0.664177 0.674742
0.000000 0.761788 0.670281
0.000000 0.757808 0.670574
0.118695 0.751020 0.670662
0.493030 0.744154 0.670761
0.641328 0.738029 0.670961
0.735750 0.732937 0.671260
0.794458 0.729609 0.671568
0.834422 0.727291 0.671875
0.000000 0.805663 0.667984
0.000000 0.801744 0.668312
0.071804 0.795417 0.668452
0.453177 0.789091 0.668608
0.615679 0.783294 0.668860
0.714469 0.778288 0.669210
0.780062 0.774366 0.669659
0.824038 0.771636 0.670123
0.000000 0.837358 0.666727
0.000000 0.833558 0.667054
0.000000 0.827426 0.667217
0.426545 0.821447 0.667438
0.593774 0.815873 0.667700
0.696276 0.811139 0.668066
0.764536 0.807450 0.668532
0.811647 0.804567 0.669075
0.000000 0.000000 0.762948
0.313770 0.000000 0.760463
0.550865 0.000000 0.757628
0.696218 0.000000 0.755869
0.799022 0.000000 0.754812
0.874470 0.000000 0.754193
0.927472 0.000000 0.753940
0.965654 0.000000 0.753924
0.000000 0.322413 0.755821
0.234680 0.310498 0.754872
0.519093 0.286887 0.753375
0.672949 0.259945 0.752273
0.779668 0.229032 0.751528
0.855861 0.198409 0.751146
0.909761 0.176175 0.751021
0.948030 0.155990 0.750995
0.000000 0.499045 0.747766
0.036741 0.492739 0.747454
0.455084 0.480815 0.746734
0.629211 0.468443 0.746168
0.743181 0.456851 0.745791
0.823452 0.447190 0.745622
0.879220 0.440093 0.745609
0.917974 0.435375 0.745664
0.000000 0.615832 0.741483
0.000000 0.610926 0.741404
0.369408 0.602083 0.741022
0.581006 0.593005 0.740695
0.704814 0.584739 0.740516
0.790040 0.577860 0.740462
0.847478 0.572850 0.740519
0.885752 0.569998 0.740606
0.000000 0.700053 0.736545
0.000000 0.695734 0.736568
0.246734 0.688235 0.736339
0.532602 0.680733 0.736155
0.669166 0.673827 0.736064
0.759415 0.668087 0.736088
0.815705 0.664636 0.736161
0.852952 0.662612 0.736251
0.000000 0.761505 0.732843
0.000000 0.757489 0.732916
0.109027 0.750790 0.732778
0.484840 0.744103 0.732678
0.637661 0.738033 0.732644
0.732725 0.732725 0.732725
0.787767 0.729539 0.732830
0.828294 0.727144 0.733000
0.000000 0.805475 0.730325
0.000000 0.801654 0.730431
0.106542 0.795237 0.730357
0.449257 0.788796 0.730314
0.610143 0.782833 0.730353
0.709814 0.777856 0.730489
0.776491 0.773955 0.730713
0.818926 0.771410 0.730945
0.000000 0.837291 0.728753
0.000000 0.833473 0.728873
0.000000 0.827331 0.728837
0.412900 0.821117 0.728825
0.587002 0.815479 0.728896
0.691181 0.810759 0.729056
0.760151 0.807075 0.729301
0.808582 0.804174 0.729607
0.000000 0.000000 0.807620
0.304064 0.000000 0.805130
0.545528 0.000000 0.802181
0.692437 0.000000 0.800237
0.795971 0.000000 0.798980
0.871326 0.000000 0.798184
0.924918 0.000000 0.797751
0.963703 0.000000 0.797553
0.000000 0.321684 0.800506
0.188812 0.310250 0.799363
0.513870 0.286168 0.797682
0.669281 0.258960 0.796424
0.776595 0.228239 0.795508
0.853163 0.198922 0.794912
0.907593 0.174814 0.794584
0.946989 0.135469 0.794421
0.000000 0.498813 0.792349
0.006077 0.492447 0.791862
0.448364 0.480484 0.790974
0.625276 0.467961 0.790220
0.740179 0.456436 0.789662
0.820863 0.446816 0.789297
0.877536 0.439501 0.789111
0.918243 0.434203 0.789052
0.000000 0.615556 0.785996
0.000000 0.610761 0.785755
0.363836 0.601891 0.785191
0.576286 0.592696 0.784669
0.701750 0.584451 0.784304
0.787657 0.577540 0.784076
0.846907 0.572269 0.783992
0.888605 0.568559 0.784003
0.000000 0.699894 0.780942
0.000000 0.695658 0.780791
0.232707 0.688129 0.780387
0.528089 0.680663 0.780041
0.665278 0.673686 0.779782
0.756328 0.667958 0.779641
0.818822 0.663651 0.779627
0.860520 0.660651 0.779679
0.000000 0.761461 0.777106
0.000000 0.757529 0.777025
0.151343 0.750756 0.776711
0.482987 0.743905 0.776456
0.632916 0.737527 0.776260
0.728967 0.732267 0.776178
0.793521 0.728223 0.776211
0.835159 0.725632 0.776279
0.000000 0.805365 0.774427
0.000000 0.801332 0.774381
0.000000 0.794823 0.774151
0.443200 0.788327 0.773920
0.605759 0.782424 0.773785
0.706325 0.777536 0.773743
0.773784 0.773783 0.773783
0.813881 0.771500 0.773865
0.000000 0.837133 0.772621
0.000000 0.833133 0.772595
0.027137 0.826951 0.772393
0.403213 0.820725 0.772217
0.583313 0.815103 0.772117
0.688068 0.810421 0.772102
0.757175 0.806784 0.772168
0.805730 0.803989 0.772306
0.000000 0.000000 0.840441
0.290892 0.000000 0.837970
0.541645 0.000000 0.834928
0.689371 0.000000 0.832887
0.793843 0.000000 0.831501
0.869083 0.000000 0.830572
0.922765 0.000000 0.830030
0.961935 0.000000 0.829722
0.000000 0.321541 0.833329
0.197292 0.309317 0.832091
0.509940 0.285059 0.830305
0.666656 0.259060 0.828892
0.774065 0.230017 0.827853
0.851075 0.200132 0.827156
0.905651 0.172641 0.826725
0.945140 0.134387 0.826478
0.000000 0.498403 0.825123
0.006223 0.492212 0.824546
0.443067 0.480369 0.823522
0.622106 0.467827 0.822612
0.737507 0.456450 0.821936
0.818930 0.446796 0.821457
0.875864 0.439138 0.821170
0.916767 0.433894 0.821021
0.000000 0.615344 0.818704
0.000000 0.610475 0.818323
0.358943 0.601697 0.817631
0.571939 0.592631 0.817016
0.698968 0.584415 0.816528
0.785278 0.577487 0.816190
0.845154 0.572018 0.816002
0.887654 0.568149 0.815926
0.000000 0.699885 0.813559
0.000000 0.695597 0.813311
0.241339 0.688111 0.812789
0.522947 0.680546 0.812326
0.661945 0.673625 0.811950
0.753586 0.667811 0.811704
0.816227 0.663377 0.811583
0.860782 0.659912 0.811558
0.000000 0.761483 0.809631
0.000000 0.757286 0.809442
0.109038 0.750430 0.809042
0.477784 0.743483 0.808649
0.629770 0.737175 0.808352
0.726266 0.731982 0.808163
0.791431 0.728065 0.808079
0.836875 0.724928 0.808096
0.000000 0.804978 0.806833
0.000000 0.800926 0.806683
0.008302 0.794531 0.806333
0.435315 0.788016 0.806008
0.602072 0.782155 0.805767
0.703483 0.777305 0.805616
0.771157 0.773584 0.805555
0.818097 0.770632 0.805590
0.000000 0.836824 0.804882
0.000000 0.832910 0.804758
0.022132 0.826625 0.804430
0.395035 0.820468 0.804159
0.580793 0.814839 0.803948
0.685904 0.810151 0.803825
0.754859 0.806540 0.803790
0.803811 0.803811 0.803811
