core/schema/project/pipeline/color/luts/default.cube
TITLE "ACEScg to Output > Rec.709"
LUT_3D_SIZE 32
0.000000 0.000000 0.000000
0.160520 0.000000 0.000000
0.239604 0.000000 0.000000
0.302263 0.000000 0.000000
0.355159 0.000000 0.000000
0.404005 0.000000 0.000000
0.449123 0.000000 0.000000
0.491811 0.000000 0.000000
0.531236 0.000000 0.000000
0.567884 0.000000 0.000000
0.601428 0.000000 0.000000
0.632236 0.000000 0.000000
0.660779 0.000000 0.000000
0.687365 0.000000 0.000000
0.712075 0.000000 0.000000
0.735308 0.000000 0.000000
0.757054 0.000000 0.000000
0.777570 0.000000 0.000000
0.796929 0.000000 0.000000
0.815156 0.000000 0.000000
0.832282 0.000000 0.000000
0.848562 0.000000 0.000000
0.863544 0.000000 0.000000
0.877335 0.000000 0.000000
0.890530 0.000000 0.000000
0.902898 0.000000 0.000000
0.913938 0.000000 0.000000
0.924557 0.000000 0.000000
0.934784 0.000000 0.000000
0.944089 0.000000 0.003560
0.952544 0.000000 0.010357
0.960717 0.000000 0.016125
0.000000 0.135143 0.000000
0.132793 0.130303 0.000000
0.236528 0.119511 0.000000
0.303511 0.104000 0.000000
0.357863 0.083251 0.000000
0.406496 0.033477 0.000000
0.451964 0.008920 0.000000
0.494439 0.000000 0.000000
0.533530 0.000000 0.000000
0.569559 0.000000 0.000000
0.602750 0.000000 0.000000
0.633278 0.000000 0.000000
0.661448 0.000000 0.000000
0.687813 0.000000 0.000000
0.712298 0.000000 0.000000
0.735343 0.000000 0.000000
0.756909 0.000000 0.000000
0.777276 0.000000 0.000000
0.796487 0.000000 0.000000
0.814550 0.000000 0.000000
0.831589 0.000000 0.000000
0.847801 0.000000 0.000000
0.862490 0.000000 0.000000
0.876216 0.000000 0.000000
0.889357 0.000000 0.000000
0.901450 0.000000 0.000000
0.912465 0.000000 0.000000
0.923064 0.000000 0.000000
0.933256 0.000000 0.000000
0.942304 0.000000 0.000000
0.950736 0.000000 0.000000
0.958882 0.000000 0.000000
0.000000 0.215947 0.000000
0.040793 0.212855 0.000000
0.210632 0.205856 0.000000
0.294666 0.197561 0.000000
0.358522 0.188541 0.000000
0.411337 0.179080 0.000000
0.458027 0.168706 0.000000
0.500257 0.157161 0.000000
0.538692 0.144456 0.000000
0.573719 0.131797 0.000000
0.605969 0.112759 0.000000
0.635748 0.093668 0.000000
0.663319 0.053320 0.000000
0.689085 0.007306 0.000000
0.713145 0.000000 0.000000
0.735770 0.000000 0.000000
0.756959 0.002533 0.000000
0.777030 0.000000 0.000000
0.795977 0.000000 0.000000
0.813749 0.000000 0.000000
0.830563 0.000000 0.000000
0.846594 0.000000 0.000000
0.860941 0.000000 0.000000
0.874560 0.000000 0.000000
0.887573 0.000000 0.000000
0.899317 0.000000 0.000000
0.910232 0.000000 0.000000
0.920737 0.000000 0.000000
0.930860 0.000000 0.000000
0.939643 0.000000 0.000000
0.948038 0.000000 0.000000
0.956156 0.000000 0.000000
0.000000 0.276941 0.000000
0.000000 0.274827 0.000000
0.165348 0.270421 0.000000
0.270911 0.264603 0.000000
0.345890 0.258018 0.000000
0.407122 0.250964 0.000000
0.459249 0.243789 0.000000
0.504346 0.236870 0.000000
0.543708 0.230261 0.000000
0.578488 0.223291 0.000000
0.610120 0.216178 0.000000
0.639321 0.209258 0.000000
0.666265 0.201436 0.000000
0.691386 0.194041 0.000000
0.714865 0.186124 0.000000
0.736930 0.177558 0.000000
0.757664 0.170159 0.000000
0.777319 0.159644 0.000000
0.795907 0.148306 0.000000
0.813271 0.140636 0.000000
0.829767 0.129107 0.000000
0.845418 0.106168 0.000000
0.859428 0.097198 0.000000
0.872825 0.089030 0.000000
0.885660 0.081588 0.000000
0.897020 0.071920 0.000000
0.907789 0.062520 0.000000
0.918153 0.053774 0.000000
0.928016 0.045259 0.000000
0.936601 0.034567 0.000000
0.944896 0.025582 0.000000
0.952928 0.029730 0.000000
0.000000 0.330115 0.000000
0.000000 0.328582 0.000000
0.081929 0.325380 0.000000
0.237418 0.321145 0.000000
0.323855 0.316011 0.000000
0.392847 0.310328 0.000000
0.451505 0.304841 0.000000
0.501099 0.299422 0.000000
0.543414 0.294166 0.000000
0.580375 0.289215 0.000000
0.612548 0.284250 0.000000
0.641955 0.279466 0.000000
0.668713 0.274761 0.000000
0.693511 0.270089 0.000000
0.716607 0.265318 0.000000
0.738247 0.261098 0.000000
0.758642 0.255948 0.000000
0.777899 0.251372 0.000000
0.796011 0.247423 0.000000
0.812982 0.242492 0.000000
0.829111 0.237932 0.000000
0.844142 0.234046 0.000000
0.857799 0.230469 0.000000
0.870934 0.225578 0.000000
0.883454 0.221135 0.000000
0.894459 0.218429 0.000000
0.905038 0.215962 0.000000
0.915262 0.211507 0.000000
0.924796 0.207159 0.000000
0.933288 0.204987 0.000000
0.941494 0.203022 0.000000
0.949431 0.201250 0.000000
0.000000 0.378548 0.000000
0.000000 0.377466 0.000000
0.000000 0.375055 0.000000
0.185432 0.371832 0.000000
0.295344 0.368072 0.000000
0.371961 0.363869 0.000000
0.436683 0.359296 0.000000
0.490857 0.354641 0.000000
0.537037 0.350113 0.000000
0.576360 0.345696 0.000000
0.610741 0.341483 0.000000
0.641712 0.337615 0.000000
0.669063 0.333688 0.000000
0.694262 0.330341 0.000000
0.717362 0.326889 0.000000
0.738839 0.323684 0.000000
0.759047 0.320672 0.000000
0.777988 0.317327 0.000000
0.795748 0.314411 0.000000
0.812324 0.311745 0.000000
0.828145 0.308490 0.000000
0.842670 0.305808 0.000000
0.856033 0.303638 0.000000
0.868869 0.301111 0.000000
0.880942 0.298384 0.000000
0.891750 0.296426 0.000000
0.902143 0.294646 0.000000
0.912152 0.293030 0.000000
0.921320 0.290965 0.000000
0.929662 0.289344 0.000000
0.937682 0.287839 0.000000
0.945440 0.286470 0.000000
0.000000 0.423675 0.000000
0.000000 0.422796 0.000000
0.000000 0.420932 0.000000
0.109918 0.418393 0.000000
0.258586 0.415463 0.000000
0.347426 0.411972 0.000000
0.417916 0.408092 0.000000
0.476223 0.404089 0.000000
0.525630 0.400181 0.000000
0.567626 0.396247 0.000000
0.604385 0.392594 0.000000
0.637075 0.389249 0.000000
0.665915 0.385958 0.000000
0.692250 0.382986 0.000000
0.716054 0.380067 0.000000
0.737902 0.377313 0.000000
0.758436 0.374880 0.000000
0.777324 0.372161 0.000000
0.794888 0.369865 0.000000
0.811294 0.367834 0.000000
0.826856 0.365332 0.000000
0.840907 0.363387 0.000000
0.854024 0.361758 0.000000
0.866621 0.359918 0.000000
0.878240 0.358057 0.000000
0.888827 0.356655 0.000000
0.899010 0.355392 0.000000
0.908819 0.354256 0.000000
0.917613 0.352890 0.000000
0.925783 0.351759 0.000000
0.933665 0.350729 0.000000
0.941291 0.349803 0.000000
0.000000 0.464663 0.000000
0.000000 0.463981 0.000000
0.000000 0.462417 0.000000
0.009430 0.460319 0.000000
0.208481 0.457691 0.000000
0.318820 0.454655 0.000000
0.396425 0.451276 0.000000
0.458840 0.447744 0.000000
0.511240 0.444252 0.000000
0.556125 0.440790 0.000000
0.594880 0.437437 0.000000
0.629816 0.434411 0.000000
0.659919 0.431332 0.000000
0.687899 0.428636 0.000000
0.712454 0.425899 0.000000
0.735335 0.423451 0.000000
0.756374 0.421131 0.000000
0.775608 0.418828 0.000000
0.793302 0.416920 0.000000
0.809723 0.414994 0.000000
0.825164 0.413009 0.000000
0.838859 0.411523 0.000000
0.851857 0.410217 0.000000
0.864286 0.408488 0.000000
0.875474 0.407160 0.000000
0.885865 0.406089 0.000000
0.895863 0.405131 0.000000
0.905553 0.403868 0.000000
0.913958 0.402944 0.000000
0.921999 0.402150 0.000000
0.929773 0.401446 0.000000
0.937284 0.400823 0.000000
0.000000 0.501556 0.000000
0.000000 0.500916 0.000000
0.000000 0.499503 0.000000
0.000000 0.497600 0.000000
0.144483 0.495278 0.000000
0.287248 0.492600 0.000000
0.373706 0.489578 0.000000
0.440139 0.486393 0.000000
0.495229 0.483199 0.000000
0.542772 0.480124 0.000000
0.583621 0.476986 0.000000
0.619888 0.474047 0.000000
0.652066 0.471241 0.000000
0.681049 0.468627 0.000000
0.706981 0.466112 0.000000
0.731202 0.463866 0.000000
0.752550 0.461574 0.000000
0.772696 0.459510 0.000000
0.790789 0.457741 0.000000
0.807235 0.455900 0.000000
0.822744 0.454267 0.000000
0.836507 0.453032 0.000000
0.849410 0.451575 0.000000
0.861732 0.450205 0.000000
0.872582 0.449225 0.000000
0.882866 0.448390 0.000000
0.892767 0.447288 0.000000
0.902170 0.446258 0.000000
0.910329 0.445608 0.000000
0.918210 0.445037 0.000000
0.925830 0.444541 0.000000
0.933281 0.443707 0.000000
0.000000 0.534779 0.000000
0.000000 0.534174 0.000000
0.000000 0.532871 0.000000
0.000000 0.531152 0.000000
0.045239 0.529013 0.000000
0.245716 0.526546 0.000000
0.348005 0.523801 0.000000
0.421203 0.520982 0.000000
0.478845 0.518059 0.000000
0.527942 0.515153 0.000000
0.571626 0.512403 0.000000
0.608795 0.509564 0.000000
0.642963 0.506995 0.000000
0.672655 0.504402 0.000000
0.700438 0.502088 0.000000
0.724802 0.499763 0.000000
0.747516 0.497646 0.000000
0.768558 0.495701 0.000000
0.786659 0.493876 0.000000
0.803843 0.492229 0.000000
0.819771 0.490807 0.000000
0.833400 0.489415 0.000000
0.846433 0.488153 0.000000
0.858832 0.487027 0.000000
0.869602 0.486171 0.000000
0.879788 0.485167 0.000000
0.889592 0.484259 0.000000
0.898683 0.483526 0.000000
0.906742 0.483047 0.000000
0.914542 0.482405 0.000000
0.922092 0.481728 0.000000
0.929381 0.481127 0.000000
0.000000 0.564918 0.000000
0.000000 0.564353 0.000000
0.000000 0.563142 0.000000
0.000000 0.561485 0.000000
0.000000 0.559550 0.000000
0.182410 0.557274 0.000000
0.319024 0.554724 0.000000
0.399015 0.552057 0.000000
0.461746 0.549412 0.000000
0.513509 0.546786 0.000000
0.557751 0.544110 0.000000
0.597801 0.541628 0.000000
0.632027 0.539054 0.000000
0.663960 0.536734 0.000000
0.691875 0.534393 0.000000
0.717713 0.532250 0.000000
0.741509 0.530235 0.000000
0.762438 0.528275 0.000000
0.781702 0.526596 0.000000
0.799599 0.524988 0.000000
0.815167 0.523487 0.000000
0.829436 0.522230 0.000000
0.843083 0.521089 0.000000
0.855301 0.519927 0.000000
0.866061 0.519004 0.000000
0.876407 0.518170 0.000000
0.886366 0.517418 0.000000
0.895271 0.516715 0.000000
0.903257 0.516090 0.000000
0.910972 0.515533 0.000000
0.918435 0.515039 0.000000
0.925480 0.514647 0.000000
0.000000 0.592542 0.000000
0.000000 0.591958 0.000000
0.000000 0.590787 0.000000
0.000000 0.589284 0.000000
0.000000 0.587387 0.000000
0.087152 0.585218 0.000000
0.288703 0.582850 0.000000
0.379227 0.580437 0.000000
0.443484 0.577871 0.000000
0.497956 0.575384 0.000000
0.544826 0.573006 0.000000
0.585038 0.570519 0.000000
0.621711 0.568251 0.000000
0.653720 0.565916 0.000000
0.683229 0.563766 0.000000
0.709944 0.561695 0.000000
0.734050 0.559680 0.000000
0.756336 0.557918 0.000000
0.775875 0.556206 0.000000
0.794023 0.554584 0.000000
0.810311 0.553254 0.000000
0.825019 0.552006 0.000000
0.838554 0.550760 0.000000
0.850925 0.549728 0.000000
0.862156 0.548904 0.000000
0.872640 0.548044 0.000000
0.882515 0.547180 0.000000
0.891213 0.546559 0.000000
0.899318 0.546061 0.000000
0.907151 0.545622 0.000000
0.914595 0.545021 0.000000
0.921455 0.544550 0.000000
0.000000 0.617886 0.000000
0.000000 0.617323 0.000000
0.000000 0.616212 0.000000
0.000000 0.614763 0.000000
0.000000 0.613019 0.000000
0.035403 0.610982 0.000000
0.241836 0.608717 0.000000
0.352911 0.606375 0.000000
0.425510 0.604042 0.000000
0.482909 0.601723 0.000000
0.530547 0.599367 0.000000
0.573426 0.597164 0.000000
0.609972 0.594857 0.000000
0.643909 0.592747 0.000000
0.673801 0.590614 0.000000
0.701319 0.588609 0.000000
0.726902 0.586740 0.000000
0.748807 0.584922 0.000000
0.769366 0.583291 0.000000
0.788672 0.581763 0.000000
0.804559 0.580387 0.000000
0.819641 0.579141 0.000000
0.834069 0.578000 0.000000
0.846466 0.576994 0.000000
0.857610 0.576073 0.000000
0.868328 0.575233 0.000000
0.878650 0.574466 0.000000
0.887328 0.573898 0.000000
0.895366 0.573298 0.000000
0.903135 0.572757 0.000000
0.910652 0.572271 0.000000
0.917440 0.571937 0.000000
0.000000 0.641285 0.000000
0.000000 0.640711 0.000000
0.000000 0.639663 0.000000
0.000000 0.638232 0.000000
0.000000 0.636550 0.000000
0.044561 0.634601 0.000000
0.182271 0.632467 0.000000
0.329804 0.630290 0.000000
0.406656 0.628088 0.000000
0.466304 0.625816 0.000000
0.517959 0.623708 0.000000
0.560248 0.621466 0.000000
0.599542 0.619448 0.000000
0.633081 0.617291 0.000000
0.664508 0.615340 0.000000
0.692614 0.613387 0.000000
0.718306 0.611507 0.000000
0.741809 0.609877 0.000000
0.762465 0.608209 0.000000
0.781661 0.606672 0.000000
0.798673 0.605420 0.000000
0.814172 0.604171 0.000000
0.828500 0.602953 0.000000
0.841046 0.602009 0.000000
0.852940 0.601169 0.000000
0.863815 0.600290 0.000000
0.873916 0.599472 0.000000
0.882635 0.598894 0.000000
0.891055 0.598372 0.000000
0.899138 0.597882 0.000000
0.906627 0.597313 0.000000
0.913232 0.596929 0.000000
0.000000 0.663010 0.000000
0.000000 0.662457 0.000000
0.000000 0.661433 0.000000
0.000000 0.660086 0.000000
0.000000 0.658470 0.000000
0.018653 0.656608 0.000000
0.150676 0.654580 0.000000
0.297792 0.652445 0.000000
0.385695 0.650306 0.000000
0.451756 0.648234 0.000000
0.502745 0.646087 0.000000
0.548514 0.644072 0.000000
0.587339 0.642006 0.000000
0.623372 0.640114 0.000000
0.654471 0.638116 0.000000
0.683752 0.636294 0.000000
0.710111 0.634506 0.000000
0.733370 0.632825 0.000000
0.755454 0.631281 0.000000
0.775017 0.629817 0.000000
0.791907 0.628503 0.000000
0.808052 0.627292 0.000000
0.823364 0.626184 0.000000
0.835660 0.625190 0.000000
0.847474 0.624276 0.000000
0.858843 0.623434 0.000000
0.869350 0.622725 0.000000
0.878096 0.622087 0.000000
0.886457 0.621488 0.000000
0.894542 0.620941 0.000000
0.902339 0.620448 0.000000
0.909121 0.620140 0.000000
0.000000 0.683242 0.000000
0.000000 0.682698 0.000000
0.000000 0.681677 0.000000
0.000000 0.680407 0.000000
0.000000 0.678846 0.000000
0.000000 0.677047 0.000000
0.128075 0.675026 0.000000
0.261797 0.672970 0.000000
0.367330 0.670969 0.000000
0.433649 0.668913 0.000000
0.489181 0.666899 0.000000
0.535644 0.664934 0.000000
0.576451 0.662996 0.000000
0.612302 0.661090 0.000000
0.645458 0.659314 0.000000
0.674445 0.657449 0.000000
0.701554 0.655767 0.000000
0.725865 0.654173 0.000000
0.747774 0.652576 0.000000
0.767755 0.651196 0.000000
0.785737 0.649965 0.000000
0.801769 0.648695 0.000000
0.816702 0.647574 0.000000
0.829985 0.646674 0.000000
0.842296 0.645781 0.000000
0.853603 0.644882 0.000000
0.863792 0.644153 0.000000
0.873041 0.643569 0.000000
0.881976 0.643036 0.000000
0.890030 0.642430 0.000000
0.897633 0.641906 0.000000
0.904391 0.641536 0.000000
0.000000 0.701945 0.000000
0.000000 0.701421 0.000000
0.000000 0.700427 0.000000
0.000000 0.699168 0.000000
0.000000 0.697661 0.000000
0.000000 0.695923 0.000000
0.077984 0.694034 0.000000
0.236412 0.692094 0.000000
0.342695 0.690129 0.000000
0.417043 0.688169 0.000000
0.475845 0.686280 0.000000
0.523029 0.684341 0.000000
0.565466 0.682528 0.000000
0.602134 0.680682 0.000000
0.635325 0.678921 0.000000
0.666019 0.677249 0.000000
0.692717 0.675548 0.000000
0.717704 0.674014 0.000000
0.740817 0.672531 0.000000
0.760306 0.671146 0.000000
0.778496 0.669910 0.000000
0.795896 0.668766 0.000000
0.810567 0.667655 0.000000
0.823770 0.666706 0.000000
0.836463 0.665828 0.000000
0.848684 0.665016 0.000000
0.858668 0.664291 0.000000
0.867875 0.663640 0.000000
0.876773 0.663004 0.000000
0.885381 0.662416 0.000000
0.893263 0.661931 0.000000
0.899992 0.661460 0.000000
0.000000 0.719487 0.000000
0.000000 0.718978 0.000000
0.000000 0.718012 0.000000
0.000000 0.716786 0.000000
0.000000 0.715325 0.000000
0.000000 0.713652 0.000000
0.041721 0.711862 0.000000
0.206438 0.710000 0.000000
0.315403 0.708044 0.000000
0.401898 0.706169 0.000000
0.459951 0.704213 0.000000
0.511768 0.702388 0.000000
0.553739 0.700502 0.000000
0.592903 0.698791 0.000000
0.625967 0.696968 0.000000
0.656966 0.695280 0.000000
0.684982 0.693698 0.000000
0.709787 0.692079 0.000000
0.733378 0.690578 0.000000
0.753794 0.689311 0.000000
0.771877 0.687984 0.000000
0.789185 0.686749 0.000000
0.804637 0.685743 0.000000
0.818278 0.684773 0.000000
0.830913 0.683802 0.000000
0.843082 0.682895 0.000000
0.853453 0.682254 0.000000
0.863154 0.681627 0.000000
0.872011 0.680949 0.000000
0.880582 0.680317 0.000000
0.888312 0.679843 0.000000
0.895492 0.679469 0.000000
0.000000 0.735324 0.000000
0.000000 0.734771 0.000000
0.000000 0.733800 0.000000
0.000000 0.732563 0.000000
0.000000 0.731103 0.000000
0.000000 0.729447 0.000000
0.000000 0.727664 0.000000
0.145926 0.725781 0.000000
0.297214 0.723913 0.000000
0.383395 0.722071 0.000000
0.447287 0.720221 0.000000
0.499560 0.718446 0.000000
0.543901 0.716672 0.000000
0.582509 0.714948 0.000000
0.617909 0.713328 0.000000
0.648594 0.711621 0.000000
0.676908 0.710111 0.000000
0.702902 0.708624 0.000000
0.726030 0.707125 0.000000
0.746542 0.705885 0.000000
0.765966 0.704712 0.000000
0.783151 0.703447 0.000000
0.798164 0.702451 0.000000
0.812414 0.701546 0.000000
0.825819 0.700662 0.000000
0.837698 0.699754 0.000000
0.847942 0.699087 0.000000
0.857834 0.698468 0.000000
0.867397 0.697895 0.000000
0.876117 0.697263 0.000000
0.883634 0.696785 0.000000
0.890787 0.696371 0.000000
0.000000 0.749871 0.000000
0.000000 0.749328 0.000000
0.000000 0.748419 0.000000
0.000000 0.747235 0.000000
0.000000 0.745833 0.000000
0.000000 0.744233 0.000000
0.000000 0.742451 0.000000
0.096946 0.740663 0.000000
0.278303 0.738915 0.000000
0.363839 0.737072 0.000000
0.435723 0.735367 0.000000
0.487005 0.733581 0.000000
0.534522 0.731958 0.000000
0.572967 0.730242 0.000000
0.608595 0.728657 0.000000
0.640782 0.727105 0.000000
0.668803 0.725579 0.000000
0.695414 0.724166 0.000000
0.719141 0.722812 0.000000
0.739492 0.721548 0.000000
0.758969 0.720342 0.000000
0.777470 0.719190 0.000000
0.792243 0.718115 0.000000
0.806440 0.717108 0.000000
0.820103 0.716164 0.000000
0.832703 0.715347 0.000000
0.842966 0.714580 0.000000
0.852834 0.713856 0.000000
0.862378 0.713176 0.000000
0.871569 0.712546 0.000000
0.879416 0.712090 0.000000
0.886555 0.711568 0.000000
0.000000 0.763669 0.000000
0.000000 0.763098 0.000000
0.000000 0.762171 0.000000
0.000000 0.760969 0.000000
0.000000 0.759552 0.000000
0.000000 0.757889 0.000000
0.000000 0.756114 0.000000
0.050303 0.754350 0.000000
0.228411 0.752544 0.000000
0.348133 0.750741 0.000000
0.421038 0.748999 0.000000
0.476635 0.747245 0.000000
0.523684 0.745550 0.000000
0.565057 0.743917 0.000000
0.600374 0.742256 0.000000
0.633388 0.740732 0.000000
0.662248 0.739202 0.000000
0.688682 0.737705 0.000000
0.712755 0.736389 0.000000
0.733861 0.735124 0.000000
0.753219 0.733858 0.000000
0.771217 0.732724 0.000000
0.787214 0.731789 0.000000
0.801449 0.730776 0.000000
0.815029 0.729808 0.000000
0.827230 0.729007 0.000000
0.838307 0.728342 0.000000
0.848454 0.727640 0.000000
0.857950 0.726934 0.000000
0.866892 0.726312 0.000000
0.874805 0.725849 0.000000
0.882480 0.725418 0.000000
0.000000 0.775591 0.000000
0.000000 0.775020 0.000000
0.000000 0.774099 0.000000
0.000000 0.772934 0.000000
0.000000 0.771544 0.000000
0.000000 0.769971 0.000000
0.000000 0.768255 0.000000
0.019848 0.766543 0.000000
0.179688 0.764774 0.000000
0.336466 0.763066 0.000000
0.407438 0.761322 0.000000
0.468042 0.759689 0.000000
0.514479 0.757993 0.000000
0.556622 0.756425 0.000000
0.593172 0.754833 0.000000
0.625662 0.753308 0.000000
0.656073 0.751904 0.000000
0.682614 0.750422 0.000000
0.706074 0.749122 0.000000
0.727988 0.747943 0.000000
0.747887 0.746731 0.000000
0.765380 0.745618 0.000000
0.781269 0.744664 0.000000
0.796547 0.743769 0.000000
0.810297 0.742812 0.000000
0.822101 0.742030 0.000000
0.833117 0.741342 0.000000
0.843764 0.740697 0.000000
0.853802 0.740054 0.000000
0.862494 0.739442 0.000000
0.870373 0.738954 0.000000
0.878016 0.738499 0.000000
0.000000 0.786934 0.000000
0.000000 0.786370 0.000000
0.000000 0.785470 0.000000
0.000000 0.784329 0.000000
0.000000 0.782973 0.000000
0.000000 0.781451 0.000000
0.000000 0.779826 0.000000
0.026141 0.778107 0.000000
0.135550 0.776416 0.000000
0.300754 0.774746 0.000000
0.394616 0.773068 0.000000
0.455179 0.771452 0.000000
0.505725 0.769856 0.000000
0.547395 0.768286 0.000000
0.586534 0.766829 0.000000
0.618506 0.765304 0.000000
0.648633 0.763892 0.000000
0.677005 0.762555 0.000000
0.699857 0.761275 0.000000
0.721597 0.760083 0.000000
0.742407 0.758966 0.000000
0.759966 0.757867 0.000000
0.775797 0.756826 0.000000
0.791026 0.755844 0.000000
0.805696 0.754917 0.000000
0.817468 0.754124 0.000000
0.828461 0.753346 0.000000
0.839089 0.752611 0.000000
0.849375 0.751915 0.000000
0.858567 0.751357 0.000000
0.866438 0.750778 0.000000
0.874073 0.750230 0.000000
0.000000 0.797770 0.000000
0.000000 0.797209 0.000000
0.000000 0.796265 0.000000
0.000000 0.795087 0.000000
0.000000 0.793700 0.000000
0.000000 0.792162 0.000000
0.000000 0.790533 0.000000
0.027496 0.788773 0.000000
0.108040 0.787091 0.000000
0.272729 0.785368 0.000000
0.384507 0.783712 0.000000
0.444492 0.782037 0.000000
0.498709 0.780480 0.000000
0.540012 0.778846 0.000000
0.578997 0.777330 0.000000
0.612883 0.775851 0.000000
0.642801 0.774369 0.000000
0.670926 0.772998 0.000000
0.695098 0.771750 0.000000
0.716726 0.770481 0.000000
0.737440 0.769287 0.000000
0.755442 0.768301 0.000000
0.771490 0.767282 0.000000
0.786619 0.766288 0.000000
0.800908 0.765377 0.000000
0.813231 0.764659 0.000000
0.824569 0.763916 0.000000
0.835139 0.763165 0.000000
0.845371 0.762454 0.000000
0.854278 0.761911 0.000000
0.862747 0.761421 0.000000
0.870551 0.760890 0.000000
0.000000 0.807014 0.000000
0.000000 0.806418 0.000000
0.000000 0.805499 0.000000
0.000000 0.804350 0.000000
0.000000 0.802999 0.000000
0.000000 0.801498 0.000000
0.000000 0.799863 0.000000
0.018776 0.798180 0.000000
0.110241 0.796539 0.000000
0.267766 0.794851 0.000000
0.373336 0.793245 0.000000
0.436329 0.791605 0.000000
0.489248 0.790049 0.000000
0.533862 0.788510 0.000000
0.572157 0.786995 0.000000
0.607181 0.785583 0.000000
0.637688 0.784139 0.000000
0.665106 0.782787 0.000000
0.689852 0.781584 0.000000
0.712262 0.780372 0.000000
0.732594 0.779187 0.000000
0.750268 0.778207 0.000000
0.767254 0.777283 0.000000
0.782493 0.776299 0.000000
0.796333 0.775412 0.000000
0.808583 0.774682 0.000000
0.820418 0.773992 0.000000
0.831421 0.773287 0.000000
0.841530 0.772571 0.000000
0.850221 0.772036 0.000000
0.858651 0.771530 0.000000
0.866834 0.771053 0.000000
0.000000 0.815825 0.000000
0.000000 0.815250 0.000000
0.000000 0.814342 0.000000
0.000000 0.813228 0.000000
0.000000 0.811914 0.000000
0.000000 0.810430 0.000000
0.000000 0.808807 0.000000
0.010548 0.807199 0.000000
0.121877 0.805553 0.000000
0.263824 0.803943 0.000000
0.355748 0.802334 0.000000
0.428814 0.800779 0.000000
0.480266 0.799222 0.000000
0.528072 0.797775 0.000000
0.565771 0.796265 0.000000
0.600453 0.794854 0.000000
0.632956 0.793513 0.000000
0.659674 0.792179 0.000000
0.684215 0.790971 0.000000
0.707691 0.789835 0.000000
0.727862 0.788704 0.000000
0.745409 0.787715 0.000000
0.762280 0.786782 0.000000
0.778524 0.785900 0.000000
0.792019 0.785049 0.000000
0.804196 0.784308 0.000000
0.815965 0.783606 0.000000
0.827349 0.782942 0.000000
0.837731 0.782313 0.000000
0.846379 0.781764 0.000000
0.854788 0.781205 0.000000
0.862966 0.780648 0.000000
0.000000 0.824291 0.000000
0.000000 0.823716 0.000000
0.000000 0.822823 0.000000
0.000000 0.821725 0.000000
0.000000 0.820472 0.000000
0.000000 0.818973 0.000000
0.000000 0.817394 0.000000
0.004747 0.815856 0.000000
0.133662 0.814209 0.000000
0.250645 0.812664 0.000000
0.339292 0.811063 0.000000
0.421845 0.809543 0.000000
0.472151 0.807929 0.000000
0.519579 0.806428 0.000000
0.560151 0.804947 0.000000
0.594582 0.803477 0.000000
0.627326 0.802097 0.000000
0.655081 0.800790 0.000000
0.679490 0.799518 0.000000
0.702853 0.798317 0.000000
0.723957 0.797240 0.000000
0.741434 0.796183 0.000000
0.758244 0.795180 0.000000
0.774437 0.794228 0.000000
0.788558 0.793436 0.000000
0.800710 0.792621 0.000000
0.812455 0.791847 0.000000
0.823822 0.791108 0.000000
0.834189 0.790470 0.000000
0.843323 0.789911 0.000000
0.851703 0.789316 0.000000
0.859843 0.788749 0.000000
0.000000 0.831940 0.000000
0.000000 0.831322 0.000000
0.000000 0.830390 0.000000
0.000000 0.829257 0.000000
0.000000 0.827969 0.000000
0.000000 0.826443 0.000000
0.000000 0.824836 0.000000
0.000000 0.823253 0.000000
0.102900 0.821595 0.000000
0.235923 0.820021 0.000000
0.332648 0.818395 0.000000
0.411536 0.816861 0.000000
0.467007 0.815313 0.000000
0.513921 0.813819 0.000000
0.555904 0.812397 0.000000
0.590303 0.810939 0.000000
0.622747 0.809562 0.000000
0.651248 0.808317 0.000000
0.675871 0.807060 0.000000
0.699049 0.805857 0.000000
0.719568 0.804806 0.000000
0.738160 0.803819 0.000000
0.754854 0.802812 0.000000
